svgs/1F469-1F3FD-200D-1F9B3.svg

<svg xmlns="http://www.w3.org/2000/svg" xmlns:xlink="http://www.w3.org/1999/xlink" preserveAspectRatio="none" viewBox="0 0 72 72"><defs><path id="a" fill="#E0E0E0" d="M118.2 71.6l.3-15.8L65 53.6 9.5 55.8l.3 15.8q.7 18.65 2.85 33.05 2 13.55 3.95 16.2 2.4 3.3 11.2 2.3 6.3-.75 20.9-3 9.45-1.5 14.8-1.5h.95q5.35 0 14.8 1.5 14.6 2.25 20.85 3 8.8 1 11.2-2.3 2-2.65 4-16.2 2.15-14.4 2.9-33.05z"/><path id="b" fill="#E0E0E0" d="M102.5 91.65q16-14.75 16-35.55 0-20.85-16-35.55Q86.55 5.8 64 5.8q-22.6 0-38.55 14.75Q9.5 35.25 9.5 56.1q0 20.8 15.95 35.55 16 14.75 38.55 14.75 22.55 0 38.5-14.75z"/><path id="c" fill="#CC9970" d="M106.75 73.45q0-28.7-8.9-42.6Q87.7 14.9 64.15 14.9q-23.55 0-33.9 16.1-9.05 14.15-9.05 42.8 0 24 15.45 37.5 12.35 10.85 27.5 10.85 15.05 0 27.35-11 15.25-13.7 15.25-37.7z"/><path id="d" fill="#E0E0E0" d="M108.05 32.25q-3.2-6.5-10.25-13.05Q83.65 6.15 64.4 6.15q-19.2 0-33.35 12.75Q24 25.3 20.8 31.65v39.8q19-3.2 37.35-14.65 10.5-6.55 18.3-14 .3-.3.7-.25.4.1.6.5Q84.05 56 96.7 65q6.3 4.55 11.35 6.45v-39.2z"/><path id="e" fill="#444" d="M40.15 72.35q-1.7 2-1.7 4.85 0 2.9 1.7 4.9 1.65 2 4.05 2 2.35 0 4.05-2 1.65-2.05 1.65-4.9 0-2.85-1.65-4.85-1.7-2.05-4.05-2.05-2.4 0-4.05 2.05z"/><path id="f" fill="#444" d="M87.85 72.35q-1.7-2.05-4.05-2.05-2.4 0-4.05 2.05-1.7 2-1.7 4.85 0 2.85 1.7 4.9 1.65 2 4.05 2 2.35 0 4.05-2 1.65-2 1.65-4.9 0-2.85-1.65-4.85z"/><path id="g" fill="#513F35" d="M63.95 108.75q4.9 0 9-2.15 3.2-1.7 4.5-3.7.7-1.05.35-1.7-.35-.65-1.45-.65H51.6q-1.1 0-1.45.65-.35.65.35 1.7 1.3 2 4.5 3.7 4.1 2.15 8.95 2.15z"/><path id="h" fill="#99674F" d="M58 90q-.65-.15-.9.3-.3.4-.05.9.7 1.15 2.4 2.2 2.2 1.35 4.55 1.35 2.35 0 4.5-1.35 1.7-1.05 2.4-2.2.25-.5 0-.9-.3-.45-.95-.3-3.15.9-5.95.9-2.85 0-6-.9z"/></defs><use transform="translate(0 -.25) scale(.5625)" xlink:href="#a"/><use transform="translate(0 -.25) scale(.5625)" xlink:href="#b"/><use transform="translate(0 -.25) scale(.5625)" xlink:href="#c"/><use transform="translate(0 -.25) scale(.5625)" xlink:href="#d"/><use transform="matrix(.56244 0 0 .56244 0 -.25)" xlink:href="#e"/><use transform="matrix(.56244 0 0 .56244 0 -.25)" xlink:href="#f"/><use transform="matrix(.56244 0 0 .56244 0 -.25)" xlink:href="#g"/><use transform="matrix(.56244 0 0 .56244 0 -.25)" xlink:href="#h"/></svg>

<svg xmlns="http://www.w3.org/2000/svg" version="1.1" xmlns:xlink="http://www.w3.org/1999/xlink" preserveAspectRatio="none" x="0px" y="0px" width="72px" height="72px" viewBox="0 0 72 72">
<defs>
<g id="Layer0_0_MEMBER_0_FILL">
<path fill="#E0E0E0" stroke="none" d="
M 118.2 71.6
L 118.5 55.8 65 53.6 9.5 55.8 9.8 71.6
Q 10.5 90.25 12.65 104.65 14.65 118.2 16.6 120.85 19 124.15 27.8 123.15 34.1 122.4 48.7 120.15 58.15 118.65 63.5 118.65
L 64.45 118.65
Q 69.8 118.65 79.25 120.15 93.85 122.4 100.1 123.15 108.9 124.15 111.3 120.85 113.3 118.2 115.3 104.65 117.45 90.25 118.2 71.6 Z"/>
</g>

<g id="Layer0_0_MEMBER_1_FILL">
<path fill="#E0E0E0" stroke="none" d="
M 102.5 91.65
Q 118.5 76.9 118.5 56.1 118.5 35.25 102.5 20.55 86.55 5.8 64 5.8 41.4 5.8 25.45 20.55 9.5 35.25 9.5 56.1 9.5 76.9 25.45 91.65 41.45 106.4 64 106.4 86.55 106.4 102.5 91.65 Z"/>
</g>

<g id="Layer0_0_MEMBER_2_FILL">
<path fill="#CC9970" stroke="none" d="
M 106.75 73.45
Q 106.75 44.75 97.85 30.85 87.7 14.9 64.15 14.9 40.6 14.9 30.25 31 21.2 45.15 21.2 73.8 21.2 97.8 36.65 111.3 49 122.15 64.15 122.15 79.2 122.15 91.5 111.15 106.75 97.45 106.75 73.45 Z"/>
</g>

<g id="Layer0_0_MEMBER_3_FILL">
<path fill="#E0E0E0" stroke="none" d="
M 108.05 32.25
Q 104.85 25.75 97.8 19.2 83.65 6.15 64.4 6.15 45.2 6.15 31.05 18.9 24 25.3 20.8 31.65
L 20.8 71.45
Q 39.8 68.25 58.15 56.8 68.65 50.25 76.45 42.8 76.75 42.5 77.15 42.55 77.55 42.65 77.75 43.05 84.05 56 96.7 65 103 69.55 108.05 71.45
L 108.05 32.25 Z"/>
</g>

<g id="Layer0_0_MEMBER_4_MEMBER_0_FILL">
<path fill="#444444" stroke="none" d="
M 40.15 72.35
Q 38.45 74.35 38.45 77.2 38.45 80.1 40.15 82.1 41.8 84.1 44.2 84.1 46.55 84.1 48.25 82.1 49.9 80.05 49.9 77.2 49.9 74.35 48.25 72.35 46.55 70.3 44.2 70.3 41.8 70.3 40.15 72.35 Z"/>
</g>

<g id="Layer0_0_MEMBER_4_MEMBER_1_FILL">
<path fill="#444444" stroke="none" d="
M 87.85 72.35
Q 86.15 70.3 83.8 70.3 81.4 70.3 79.75 72.35 78.05 74.35 78.05 77.2 78.05 80.05 79.75 82.1 81.4 84.1 83.8 84.1 86.15 84.1 87.85 82.1 89.5 80.1 89.5 77.2 89.5 74.35 87.85 72.35 Z"/>
</g>

<g id="Layer0_0_MEMBER_4_MEMBER_2_FILL">
<path fill="#513F35" stroke="none" d="
M 63.95 108.75
Q 68.85 108.75 72.95 106.6 76.15 104.9 77.45 102.9 78.15 101.85 77.8 101.2 77.45 100.55 76.35 100.55
L 51.6 100.55
Q 50.5 100.55 50.15 101.2 49.8 101.85 50.5 102.9 51.8 104.9 55 106.6 59.1 108.75 63.95 108.75 Z"/>
</g>

<g id="Layer0_0_MEMBER_4_MEMBER_3_FILL">
<path fill="#99674F" stroke="none" d="
M 58 90
Q 57.35 89.85 57.1 90.3 56.8 90.7 57.05 91.2 57.75 92.35 59.45 93.4 61.65 94.75 64 94.75 66.35 94.75 68.5 93.4 70.2 92.35 70.9 91.2 71.15 90.7 70.9 90.3 70.6 89.85 69.95 90 66.8 90.9 64 90.9 61.15 90.9 58 90 Z"/>
</g>
</defs>

<g id="Layer_1">
<g transform="matrix( 0.5625, 0, 0, 0.5625, 0,-0.25) ">
<use xlink:href="#Layer0_0_MEMBER_0_FILL"/>
</g>

<g transform="matrix( 0.5625, 0, 0, 0.5625, 0,-0.25) ">
<use xlink:href="#Layer0_0_MEMBER_1_FILL"/>
</g>

<g transform="matrix( 0.5625, 0, 0, 0.5625, 0,-0.25) ">
<use xlink:href="#Layer0_0_MEMBER_2_FILL"/>
</g>

<g transform="matrix( 0.5625, 0, 0, 0.5625, 0,-0.25) ">
<use xlink:href="#Layer0_0_MEMBER_3_FILL"/>
</g>

<g transform="matrix( 0.56243896484375, 0, 0, 0.56243896484375, 0,-0.25) ">
<use xlink:href="#Layer0_0_MEMBER_4_MEMBER_0_FILL"/>
</g>

<g transform="matrix( 0.56243896484375, 0, 0, 0.56243896484375, 0,-0.25) ">
<use xlink:href="#Layer0_0_MEMBER_4_MEMBER_1_FILL"/>
</g>

<g transform="matrix( 0.56243896484375, 0, 0, 0.56243896484375, 0,-0.25) ">
<use xlink:href="#Layer0_0_MEMBER_4_MEMBER_2_FILL"/>
</g>

<g transform="matrix( 0.56243896484375, 0, 0, 0.56243896484375, 0,-0.25) ">
<use xlink:href="#Layer0_0_MEMBER_4_MEMBER_3_FILL"/>
</g>
</g>
</svg>
